icons/ultrasound_scanner.svg

<svg width="48" height="48" viewBox="0 0 48 48" fill="none" xmlns="http://www.w3.org/2000/svg">
<path fill-rule="evenodd" clip-rule="evenodd" d="M8.97786 8.35429C18.7472 5.21452 29.2538 5.21526 39.0227 8.3564C41.5057 9.15478 42.603 11.9037 41.6667 14.2306L35.3047 30.0405C35.2817 30.0977 35.2585 30.1559 35.2351 30.2147C35.0076 30.7852 34.7541 31.421 34.3672 31.908C33.8636 32.5419 33.1827 32.8943 32.2548 32.9942C31.7057 33.0534 31.2126 32.6562 31.1534 32.1071C31.0943 31.558 31.4915 31.0649 32.0406 31.0058C32.5173 30.9544 32.6779 30.8192 32.8012 30.664C32.9975 30.4169 33.1435 30.054 33.432 29.3369L39.8112 13.484C40.3543 12.1343 39.6886 10.6714 38.4105 10.2604C29.0396 7.24723 18.9611 7.24652 9.58981 10.2584C8.31163 10.6692 7.64573 12.132 8.18863 13.4817L14.5692 29.3444C14.8552 30.0556 15.0003 30.4163 15.1955 30.6626C15.3185 30.8177 15.4784 30.9528 15.9542 31.0045C16.5033 31.0641 16.9 31.5576 16.8404 32.1066C16.7807 32.6557 16.2873 33.0524 15.7382 32.9928C14.8108 32.892 14.1308 32.539 13.6282 31.905C13.2429 31.4189 12.9902 30.7846 12.7634 30.2156C12.7397 30.1559 12.7162 30.0969 12.6928 30.0389L6.33311 14.2281C5.39712 11.9011 6.49479 9.15232 8.97786 8.35429ZM18.6424 12.0657C20.341 11.3621 22.1615 11 24 11C25.8385 11 27.659 11.3621 29.3576 12.0657C31.0561 12.7693 32.5995 13.8005 33.8995 15.1005C34.29 15.491 34.29 16.1242 33.8995 16.5147C33.509 16.9052 32.8758 16.9052 32.4853 16.5147C31.371 15.4004 30.0481 14.5165 28.5922 13.9134C27.1363 13.3104 25.5759 13 24 13C22.4242 13 20.8637 13.3104 19.4078 13.9134C17.9519 14.5165 16.629 15.4004 15.5147 16.5147C15.1242 16.9052 14.491 16.9052 14.1005 16.5147C13.71 16.1242 13.71 15.491 14.1005 15.1005C15.4005 13.8005 16.9439 12.7693 18.6424 12.0657ZM18.0098 16.9927C19.7438 15.6955 21.852 14.9962 24.0175 15C26.183 15.0038 28.2887 15.7104 30.0182 17.0136C30.4592 17.346 30.5474 17.973 30.215 18.4141C29.8826 18.8552 29.2556 18.9433 28.8145 18.6109C27.431 17.5683 25.7464 17.003 24.014 17C22.2816 16.997 20.595 17.5564 19.2078 18.5941C18.7656 18.925 18.1389 18.8347 17.8081 18.3924C17.4772 17.9502 17.5675 17.3235 18.0098 16.9927ZM19 23.0639V24.8708C19.0485 24.8517 19.0982 24.8327 19.1489 24.8137C20.2535 24.3995 21.8722 24 24 24C26.1279 24 27.7465 24.3995 28.8511 24.8137C28.9019 24.8327 28.9515 24.8517 29 24.8708V23.0639C28.7943 22.9557 28.5106 22.822 28.1489 22.6863C27.2535 22.3505 25.8722 22 24 22C22.1279 22 20.7465 22.3505 19.8511 22.6863C19.4894 22.822 19.2057 22.9557 19 23.0639ZM30 22.5L30.6 21.7C30.8518 21.8889 31 22.1852 31 22.5V26.7889C31 27.776 30.7078 28.7411 30.1603 29.5624L29.5039 30.547C29.1753 31.0398 29 31.6188 29 32.2111V35.9792C29 37.2038 28.5506 38.3858 27.7371 39.301C26.9856 40.1464 26.0191 40.6723 25 40.8789V41C25 41.7693 25.8375 42.246 26.499 41.8533L28.6167 40.5958C30.6802 39.3707 33.3449 40.0275 34.6027 42.0713L34.8517 42.4759C35.1411 42.9463 34.9945 43.5622 34.5241 43.8517C34.0537 44.1411 33.4378 43.9945 33.1483 43.5241L32.8993 43.1195C32.2141 42.0059 30.7621 41.648 29.6378 42.3155L27.52 43.573C25.5254 44.7573 23 43.3198 23 41V40.8789C21.9809 40.6723 21.0144 40.1464 20.263 39.301C19.4494 38.3858 19 37.2038 19 35.9792V32.2111C19 31.6188 18.8247 31.0398 18.4962 30.547L17.8398 29.5624C17.2922 28.7411 17 27.776 17 26.7889V22.5C17 22.1852 17.1482 21.8889 17.4 21.7L18 22.5C17.4 21.7 17.3996 21.7003 17.4 21.7L17.4034 21.6975L17.4075 21.6944L17.4181 21.6867C17.4261 21.6808 17.4362 21.6736 17.4483 21.6651C17.4724 21.6481 17.5047 21.626 17.5451 21.5995C17.6259 21.5465 17.7391 21.476 17.8847 21.394C18.1761 21.2301 18.5975 21.0204 19.1489 20.8137C20.2535 20.3995 21.8722 20 24 20C26.1279 20 27.7465 20.3995 28.8511 20.8137C29.4025 21.0204 29.8239 21.2301 30.1153 21.394C30.261 21.476 30.3742 21.5465 30.4549 21.5995C30.4953 21.626 30.5276 21.6481 30.5517 21.6651C30.5638 21.6736 30.5739 21.6808 30.5819 21.6867L30.5925 21.6944L30.5966 21.6975L30.5984 21.6988L30.6 21.7C30.6004 21.7003 30.6 21.7 30 22.5ZM28.988 27.0576C28.7833 26.9505 28.5036 26.8193 28.1489 26.6863C27.2535 26.3505 25.8722 26 24 26C22.1279 26 20.7465 26.3505 19.8511 26.6863C19.4964 26.8193 19.2167 26.9505 19.0121 27.0576C19.0568 27.5551 19.2252 28.0351 19.5039 28.453L20.1603 29.4376C20.7078 30.2589 21 31.224 21 32.2111V35.9792C21 36.7139 21.2696 37.4231 21.7578 37.9723C22.9512 39.3148 25.0489 39.3148 26.2422 37.9723C26.7304 37.4231 27 36.7139 27 35.9792V32.2111C27 31.224 27.2922 30.2589 27.8398 29.4376L28.4962 28.453C28.7748 28.0351 28.9432 27.5551 28.988 27.0576ZM24 31C24.5523 31 25 31.4477 25 32V36C25 36.5523 24.5523 37 24 37C23.4477 37 23 36.5523 23 36V32C23 31.4477 23.4477 31 24 31Z" fill="black"/>
</svg>

<svg
  xmlns="http://www.w3.org/2000/svg"
  width="24"
  height="24"
  viewBox="0 0 24 24"
  fill="none"
  stroke="currentColor"
  stroke-width="2"
  stroke-linecap="round"
  stroke-linejoin="round"
>
  <path
    fill-rule="evenodd"
    d="M8.978 8.354a49.1 49.1 0 0 1 30.045.002c2.483.799 3.58 3.548 2.644 5.875l-6.362 15.81-.07.174c-.227.57-.48 1.206-.868 1.693-.503.634-1.184.986-2.112 1.086a1 1 0 1 1-.214-1.988c.476-.052.637-.187.76-.342.197-.247.343-.61.631-1.327l6.38-15.853c.542-1.35-.123-2.813-1.401-3.224a47.1 47.1 0 0 0-28.821-.002c-1.278.411-1.944 1.874-1.401 3.224l6.38 15.862c.286.712.431 1.072.626 1.319.123.155.283.29.76.341a1 1 0 1 1-.217 1.989c-.927-.101-1.607-.454-2.11-1.088-.385-.486-.638-1.12-.865-1.69l-.07-.176-6.36-15.81c-.936-2.328.162-5.077 2.645-5.875m9.664 3.712A14 14 0 0 1 33.9 15.1a1 1 0 0 1-1.415 1.415 12 12 0 0 0-16.97 0A1 1 0 0 1 14.1 15.1c1.3-1.3 2.844-2.33 4.542-3.034m-.632 4.927a10 10 0 0 1 12.008.02 1 1 0 0 1-1.204 1.598 8 8 0 0 0-9.606-.017 1 1 0 1 1-1.198-1.601m.99 6.07v1.808l.149-.057C20.253 24.399 21.872 24 24 24s3.747.4 4.851.814l.149.057v-1.807a8 8 0 0 0-.851-.378C27.253 22.351 25.872 22 24 22s-3.253.35-4.149.686a8 8 0 0 0-.851.378m11-.563.6-.8a1 1 0 0 1 .4.8v4.289a5 5 0 0 1-.84 2.773l-.656.985A3 3 0 0 0 29 32.211v3.768a5 5 0 0 1-4 4.9V41a.992.992 0 0 0 1.499.853l2.118-1.257a4.394 4.394 0 0 1 5.986 1.475l.249.405a1 1 0 0 1-1.704 1.048l-.249-.404a2.394 2.394 0 0 0-3.261-.804l-2.118 1.257C25.525 44.757 23 43.32 23 41v-.121a5 5 0 0 1-4-4.9v-3.768a3 3 0 0 0-.504-1.664l-.656-.985A5 5 0 0 1 17 26.79V22.5a1 1 0 0 1 .4-.8l.6.8-.6-.8.003-.002.005-.004.01-.007a2 2 0 0 1 .127-.088c.08-.052.194-.123.34-.205a9 9 0 0 1 1.264-.58C20.253 20.399 21.872 20 24 20s3.747.4 4.851.814a9 9 0 0 1 1.264.58 6 6 0 0 1 .467.293l.01.007.005.004h.001l.002.002zm-1.012 4.558a8 8 0 0 0-.84-.372C27.254 26.351 25.873 26 24 26s-3.253.35-4.149.686a8 8 0 0 0-.839.372c.045.497.213.977.492 1.395l.656.985A5 5 0 0 1 21 32.21v3.768a3 3 0 1 0 6 0v-3.768a5 5 0 0 1 .84-2.773l.656-.985a3 3 0 0 0 .492-1.395M24 31a1 1 0 0 1 1 1v4a1 1 0 1 1-2 0v-4a1 1 0 0 1 1-1"
    clip-rule="evenodd"
  />
</svg>
